assets/icons/search-history.svg

<?xml version="1.0" encoding="UTF-8" standalone="no"?>
<svg viewBox="0 0 24 24" height="24" id="svg7384" version="1.1" width="24" sodipodi:docname="history.svg" inkscape:version="1.1.2 (76b9e6a115, 2022-02-25)"
   xmlns:inkscape="http://www.inkscape.org/namespaces/inkscape"
   xmlns:sodipodi="http://sodipodi.sourceforge.net/DTD/sodipodi-0.dtd"
   xmlns="http://www.w3.org/2000/svg"
   xmlns:svg="http://www.w3.org/2000/svg"
   xmlns:rdf="http://www.w3.org/1999/02/22-rdf-syntax-ns#"
   xmlns:cc="http://creativecommons.org/ns#"
   xmlns:dc="http://purl.org/dc/elements/1.1/">
   <sodipodi:namedview id="namedview21" pagecolor="#ffffff" bordercolor="#666666" borderopacity="1.0" inkscape:pageshadow="2" inkscape:pageopacity="0.0" inkscape:pagecheckerboard="0" showgrid="true" width="24px" inkscape:zoom="64" inkscape:cx="18.148438" inkscape:cy="14.84375" inkscape:window-width="1920" inkscape:window-height="1043" inkscape:window-x="1920" inkscape:window-y="0" inkscape:window-maximized="1" inkscape:current-layer="svg7384">
      <inkscape:grid type="xygrid" id="grid837" dotted="false" />
      <inkscape:grid type="xygrid" id="grid839" dotted="true" spacingx="0.5" spacingy="0.5" empspacing="10" />
   </sodipodi:namedview>
   <metadata id="metadata20854">
      <rdf:RDF>
         <cc:Work rdf:about="">
            <dc:format>image/svg+xml</dc:format>
            <dc:type rdf:resource="http://purl.org/dc/dcmitype/StillImage" />
         </cc:Work>
      </rdf:RDF>
   </metadata>
   <defs id="defs7386">
      <linearGradient id="linearGradient5606" inkscape:swatch="solid">
         <stop id="stop5608" offset="0" style="stop-color:#000000;stop-opacity:1;" />
      </linearGradient>
      <linearGradient id="linearGradient4526" inkscape:swatch="solid">
         <stop id="stop4528" offset="0" style="stop-color:#ffffff;stop-opacity:1;" />
      </linearGradient>
      <linearGradient id="linearGradient3600-4" inkscape:swatch="gradient">
         <stop id="stop3602-7" offset="0" style="stop-color:#f4f4f4;stop-opacity:1" />
         <stop id="stop3604-6" offset="1" style="stop-color:#dbdbdb;stop-opacity:1" />
      </linearGradient>
   </defs>
   <path style="color:#000000;fill:#808080;stroke-linecap:square;-inkscape-stroke:none" d="m 16,13 v 0.5 3.707031 l 1.646484,1.646485 0.353516,0.353515 0.707031,-0.707031 -0.353515,-0.353516 -1.353516,-1.353515 v -3.292969 -0.5 z" id="path179" />
   <path id="path2" style="line-height:125%;-inkscape-font-specification:Ubuntu;text-align:center;fill:#808080;stroke-width:1" d="M 16.5 11 A 5.5 5.5 0 0 0 12.759766 12.486328 L 12.751953 12.478516 L 12 11.726562 C 11.827441 12.206454 11.668613 12.692191 11.525391 13.181641 C 11.383126 13.673341 11.254039 14.167775 11.136719 14.666016 C 11.627368 14.556005 12.122616 14.428417 12.625 14.283203 C 13.13105 14.134321 13.615106 13.974351 14.074219 13.802734 L 13.472656 13.199219 A 4.5 4.5 0 0 1 16.5 12 A 4.5 4.5 0 0 1 21 16.5 A 4.5 4.5 0 0 1 16.5 21 A 4.5 4.5 0 0 1 12.039062 17 L 11.037109 17 A 5.5 5.5 0 0 0 16.5 22 A 5.5 5.5 0 0 0 22 16.5 A 5.5 5.5 0 0 0 16.5 11 z " />
   <path id="path2-3" style="line-height:normal;font-variant-ligatures:none;font-variant-position:normal;font-variant-caps:normal;font-variant-numeric:normal;font-variant-alternates:normal;font-feature-settings:normal;text-indent:0;text-align:start;text-decoration-line:none;text-decoration-style:solid;text-decoration-color:#000000;text-transform:none;shape-padding:0;isolation:auto;mix-blend-mode:normal;marker:none;fill:#808080" d="M 10 3 C 6.6899995 3 4 5.69 4 9 A 5.949 5.949 0 0 0 5.2734375 12.664062 L 2.4101562 15.527344 L 3.4726562 16.589844 L 6.3359375 13.726562 A 5.948 5.948 0 0 0 10 15 L 10 14 A 5 5 0 0 1 5 9 A 5 5 0 0 1 10 4 A 5 5 0 0 1 15 9 A 5 5 0 0 1 14.888672 10 L 15.916016 10 C 15.970832 9.6744815 16 9.3409362 16 9 C 16 5.69 13.31 3 10 3 z " />
</svg>

<svg height="24" width="24" xmlns="http://www.w3.org/2000/svg"><path style="color:#000;fill:gray;stroke-linecap:square;-inkscape-stroke:none" d="M16 13v4.207l1.646 1.647.354.353.707-.707-.353-.354L17 16.793V13z"/><path style="line-height:125%;-inkscape-font-specification:Ubuntu;text-align:center;fill:gray;stroke-width:1" d="M16.5 11a5.5 5.5 0 0 0-3.74 1.486l-.008-.007-.752-.752a25.313 25.313 0 0 0-.863 2.939c.49-.11.986-.238 1.488-.383.506-.149.99-.309 1.45-.48l-.602-.604A4.5 4.5 0 0 1 16.5 12a4.5 4.5 0 0 1 4.5 4.5 4.5 4.5 0 0 1-4.5 4.5 4.5 4.5 0 0 1-4.46-4h-1.003a5.5 5.5 0 0 0 5.463 5 5.5 5.5 0 0 0 5.5-5.5 5.5 5.5 0 0 0-5.5-5.5z"/><path style="line-height:normal;font-variant-ligatures:none;font-variant-position:normal;font-variant-caps:normal;font-variant-numeric:normal;font-variant-alternates:normal;font-feature-settings:normal;text-indent:0;text-align:start;text-decoration-line:none;text-decoration-style:solid;text-decoration-color:#000;text-transform:none;shape-padding:0;isolation:auto;mix-blend-mode:normal;marker:none;fill:gray" d="M10 3C6.69 3 4 5.69 4 9a5.949 5.949 0 0 0 1.273 3.664L2.41 15.527l1.063 1.063 2.863-2.863A5.948 5.948 0 0 0 10 15v-1a5 5 0 0 1-5-5 5 5 0 0 1 5-5 5 5 0 0 1 5 5 5 5 0 0 1-.111 1h1.027A6.005 6.005 0 0 0 10 3z"/></svg>
